uploads/global/wundershuttle-logo.svg

<svg fill="none" height="18" viewBox="0 0 211 18" width="211" xmlns="http://www.w3.org/2000/svg"><path d="m47.9566.629614h4.9039l2.4906 9.602586h.0696l2.2973-9.602586h4.8304l2.247 9.579386h.0696l2.4907-9.579386h4.9l-5.3216 17.138586h-4.1768l-2.5371-10.42914h-.0502l-2.6802 10.42914h-4.1768zm24.1405 12.233086v-6.92579h4.2968v5.88669c0 1.6919.4602 2.391 1.547 2.391.9165 0 1.6204-.7262 1.6204-2.3408v-5.93689h4.3238v11.83129h-4.3238v-1.263l-.0503-.0232c-.3866.4843-.8797.8732-1.441 1.1364-.5614.2633-1.176.3939-1.796.3816-2.4056 0-4.1769-1.3017-4.1769-5.1373zm13.6289-6.92579h4.3238v1.25537h.0619c.4092-.48038.9203-.86376 1.4962-1.12232.576-.25855 1.2023-.38581 1.8337-.37253 2.3939 0 4.2039 1.0854 4.2039 4.92107v7.1497h-4.3354v-6.1107c0-1.68797-.4835-2.14763-1.547-2.14763s-1.7133.69913-1.7133 2.31763v5.9407h-4.3238zm21.936-5.93691v7.09571l-.05.02704c-.392-.45258-.878-.81449-1.425-1.06062-.546-.24613-1.139-.37058-1.739-.3647-2.97 0-5.2401 2.51072-5.2401 6.15317 0 3.6425 2.2431 6.1494 5.5071 6.1494 1.35 0 2.39-.4326 3.113-1.3249h.051v1.0931h4.103v-17.7682zm-2.007 14.2339c-1.207 0-2.1-.9425-2.1-2.3871 0-1.4447.893-2.36397 2.1-2.36397s2.173.96177 2.173 2.36397c0 1.4021-.916 2.391-2.173 2.391zm20.037-2.4798c0-3.54595-2.537-6.05667-5.94-6.05667-3.578 0-6.138 2.58025-6.138 6.15317 0 3.6425 2.657 6.1494 6.188 6.1494 2.73 0 4.494-.8691 5.484-2.0742l-2.32-2.5571c-.332.3795-.74.6852-1.198.8975-.458.2122-.955.3262-1.459.3347-1.308 0-2.298-.5563-2.491-1.6919h7.758c.064-.382.103-.7678.116-1.1549zm-7.851-1.182c.059-.4525.284-.86683.633-1.16192.348-.29508.794-.44962 1.251-.43336.943 0 1.597.5794 1.79 1.59528zm9.495-4.63519h4.324v1.59528h.05c.351-.5499.833-1.00492 1.402-1.3249.57-.31998 1.209-.49509 1.862-.50986h.023v4.60817c-.359-.0232-.723-.0232-.916-.0232-1.667 0-2.441.9386-2.441 2.3176v5.1682h-4.323zm10.055 9.30899 1.837-2.2442c.525.6709 1.19 1.2193 1.949 1.607.759.3876 1.593.6051 2.445.6372 1.887 0 2.85-.8189 2.85-2.0742 0-1.4949-1.133-1.9777-3.307-2.7502-2.61-.91549-5.194-2.07429-5.194-5.21077 0-2.67682 2.464-4.778112 5.434-4.778112 2.078.027356 4.083.769482 5.677 2.101292l-1.74 2.29055c-1.4-1.15879-2.777-1.76137-3.937-1.76137-1.326 0-2.39.72618-2.413 2.00472s1.133 1.68798 3.21 2.48369c2.947 1.1588 5.314 1.95451 5.314 5.2571 0 3.5498-3.164 5.1412-5.918 5.1412-1.168.0009-2.325-.2388-3.397-.704s-2.036-1.146-2.833-1.9999zm14.259-15.2459h2.708v7.45494h.023c.515-.54034 1.138-.96589 1.83-1.2488.691-.28291 1.434-.41677 2.18-.39283 2.584 0 4.398 1.3751 4.398 4.89789v7.057h-2.708v-6.3579c0-2.34077-.939-3.15966-2.56-3.15966-1.957 0-3.163 1.20515-3.163 3.52276v5.9948h-2.708zm13.049 13.133v-7.14974h2.707v6.43904c0 2.3408.724 3.067 2.344 3.067 1.621 0 3.021-1.3288 3.021-3.8627v-5.64334h2.707v11.78494h-2.707v-1.4832l-.051-.0232c-.436.5318-.986.9593-1.609 1.2514s-1.303.4413-1.991.4366c-2.611 0-4.421-1.3056-4.421-4.8168zm13.73.8923v-5.75148h-1.447v-2.29056h1.447v-3.90901l2.707-.2897v4.19871h3.453v2.29056h-3.453v5.50038c0 1.2091.36 1.6417 1.133 1.6417.611-.0323 1.207-.2055 1.74-.506l.7 2.3407c-.91.5138-1.949.7564-2.993.6992-2.03 0-3.287-1.2786-3.287-3.909zm8.875 0v-5.75148h-1.45v-2.29056h1.45v-3.90901l2.708-.2897v4.19871h3.453v2.29056h-3.453v5.50038c0 1.2091.359 1.6417 1.133 1.6417.611-.0329 1.207-.206 1.74-.506l.7 2.3407c-.91.5138-1.949.7564-2.993.6992-2.031 0-3.288-1.2786-3.288-3.909zm7.84-14.0253h2.707v17.7682h-2.707zm15.783 12.7468h-8.598c.337 1.7111 1.617 2.727 3.454 2.727.568.0145 1.131-.102 1.646-.3405s.969-.5926 1.324-1.0346l1.884 1.6146c-.99 1.2785-2.464 2.221-5.001 2.221-3.573 0-6.11-2.391-6.11-6.0798 0-3.61931 2.463-6.05665 5.921-6.05665 3.306 0 5.553 2.4837 5.553 5.90985-.003.3475-.028.6945-.073 1.0391zm-8.551-2.1245h5.894c-.337-1.42144-1.303-2.38711-2.85-2.38711-.711-.02723-1.408.19982-1.966.64027-.558.44046-.94 1.0654-1.078 1.76234zm-186.2872 5.9871c.4297-.4188.7711-.9192 1.0042-1.4718s.3532-1.1461.3532-1.7458c0-.5996-.1201-1.1931-.3532-1.7457s-.5745-1.053-1.0042-1.4719l-8.15255-7.97248c-.88289-.84971-2.06123-1.324456-3.28732-1.324456s-2.40443.474746-3.28733 1.324456c-.429758.41915-.77126.9199-1.00442 1.4728-.233161.5529-.35327375 1.14679-.35327375 1.74672 0 .59994.12011275 1.19383.35327375 1.74673.23316.55289.574662 1.05365 1.00442 1.4728l8.1487 7.96863c.8831.8509 2.0622 1.3264 3.2893 1.3264 1.227 0 2.4061-.4755 3.2892-1.3264zm24.5467-14.40382c-.8829-.8497-2.0612-1.324453-3.2873-1.324453s-2.4045.474753-3.2874 1.324453l-4.9658 4.8515-4.9619-4.8515c-.8829-.8497-2.0612-1.324453-3.2873-1.324453s-2.4044.474753-3.2873 1.324453c-.4287.41936-.7693.91997-1.0018 1.47247-.2325.55251-.3523 1.1458-.3523 1.74513 0 .59932.1198 1.19262.3523 1.74512.2325.55251.5731 1.05311 1.0018 1.47247l8.1525 7.96863c.9212.8536 2.1313 1.3279 3.3879 1.3279s2.4667-.4743 3.3879-1.3279l8.1564-7.97635c.427-.41975.766-.92028.9972-1.47235.2311-.55207.3498-1.14461.3491-1.74301-.0008-.59839-.1209-1.19065-.3533-1.74216-.2325-.55151-.5727-1.05123-1.0007-1.46995z" fill="#fff"/></svg>

<svg width="211" height="18" viewBox="0 0 211 18" fill="none" xmlns="http://www.w3.org/2000/svg">
<path d="M47.9566 0.629614H52.8605L55.3511 10.2322H55.4207L57.718 0.629614H62.5484L64.7954 10.209H64.865L67.3557 0.629614H72.2557L66.9341 17.7682H62.7573L60.2202 7.33906H60.17L57.4898 17.7682H53.313L47.9566 0.629614ZM72.0971 12.8627V5.93691H76.3939V11.8236C76.3939 13.5155 76.8541 14.2146 77.9409 14.2146C78.8574 14.2146 79.5613 13.4884 79.5613 11.8738V5.93691H83.8851V17.7682H79.5613V16.5052L79.511 16.482C79.1244 16.9663 78.6313 17.3552 78.07 17.6184C77.5086 17.8817 76.894 18.0123 76.274 18C73.8684 18 72.0971 16.6983 72.0971 12.8627ZM85.726 5.93691H90.0498V7.19228H90.1117C90.5209 6.7119 91.032 6.32852 91.6079 6.06996C92.1839 5.81141 92.8102 5.68415 93.4416 5.69743C95.8355 5.69743 97.6455 6.78283 97.6455 10.6185V17.7682H93.3101V11.6575C93.3101 9.96953 92.8266 9.50987 91.7631 9.50987C90.6996 9.50987 90.0498 10.209 90.0498 11.8275V17.7682H85.726V5.93691ZM107.662 0V7.09571L107.612 7.12275C107.22 6.67017 106.734 6.30826 106.187 6.06213C105.641 5.816 105.048 5.69155 104.448 5.69743C101.478 5.69743 99.2079 8.20815 99.2079 11.8506C99.2079 15.4931 101.451 18 104.715 18C106.065 18 107.105 17.5674 107.828 16.6751H107.879V17.7682H111.982V0H107.662ZM105.655 14.2339C104.448 14.2339 103.555 13.2914 103.555 11.8468C103.555 10.4021 104.448 9.48283 105.655 9.48283C106.862 9.48283 107.828 10.4446 107.828 11.8468C107.828 13.2489 106.912 14.2378 105.655 14.2378V14.2339ZM125.692 11.7541C125.692 8.20815 123.155 5.69743 119.752 5.69743C116.174 5.69743 113.614 8.27768 113.614 11.8506C113.614 15.4931 116.271 18 119.802 18C122.532 18 124.296 17.1309 125.286 15.9258L122.966 13.3687C122.634 13.7482 122.226 14.0539 121.768 14.2662C121.31 14.4784 120.813 14.5924 120.309 14.6009C119.001 14.6009 118.011 14.0446 117.818 12.909H125.576C125.64 12.527 125.679 12.1412 125.692 11.7541V11.7541ZM117.841 10.5721C117.9 10.1196 118.125 9.70527 118.474 9.41018C118.822 9.1151 119.268 8.96056 119.725 8.97682C120.668 8.97682 121.322 9.55622 121.515 10.5721H117.841ZM127.336 5.93691H131.66V7.53219H131.71C132.061 6.98229 132.543 6.52727 133.112 6.20729C133.682 5.88731 134.321 5.7122 134.974 5.69743H134.997V10.3056C134.638 10.2824 134.274 10.2824 134.081 10.2824C132.414 10.2824 131.64 11.221 131.64 12.6V17.7682H127.317L127.336 5.93691ZM137.391 15.2459L139.228 13.0017C139.753 13.6726 140.418 14.221 141.177 14.6087C141.936 14.9963 142.77 15.2138 143.622 15.2459C145.509 15.2459 146.472 14.427 146.472 13.1717C146.472 11.6768 145.339 11.194 143.165 10.4215C140.555 9.50601 137.971 8.34721 137.971 5.21073C137.971 2.53391 140.435 0.432618 143.405 0.432618C145.483 0.459974 147.488 1.2021 149.082 2.53391L147.342 4.82446C145.942 3.66567 144.565 3.06309 143.405 3.06309C142.079 3.06309 141.015 3.78927 140.992 5.06781C140.969 6.34635 142.125 6.75579 144.202 7.5515C147.149 8.7103 149.516 9.50601 149.516 12.8086C149.516 16.3584 146.352 17.9498 143.598 17.9498C142.43 17.9507 141.273 17.711 140.201 17.2458C139.129 16.7806 138.165 16.0998 137.368 15.2459H137.391ZM151.65 0H154.358V7.45494H154.381C154.896 6.9146 155.519 6.48905 156.211 6.20614C156.902 5.92323 157.645 5.78937 158.391 5.81331C160.975 5.81331 162.789 7.18841 162.789 10.7112V17.7682H160.081V11.4103C160.081 9.06953 159.142 8.25064 157.521 8.25064C155.564 8.25064 154.358 9.45579 154.358 11.7734V17.7682H151.65V0ZM164.699 13.133V5.98326H167.406V12.4223C167.406 14.7631 168.13 15.4893 169.75 15.4893C171.371 15.4893 172.771 14.1605 172.771 11.6266V5.98326H175.478V17.7682H172.771V16.285L172.72 16.2618C172.284 16.7936 171.734 17.2211 171.111 17.5132C170.488 17.8053 169.808 17.9545 169.12 17.9498C166.509 17.9498 164.699 16.6442 164.699 13.133ZM178.429 14.0253V8.27382H176.982V5.98326H178.429V2.07425L181.136 1.78455V5.98326H184.589V8.27382H181.136V13.7742C181.136 14.9833 181.496 15.4159 182.269 15.4159C182.88 15.3836 183.476 15.2104 184.009 14.9099L184.709 17.2506C183.799 17.7644 182.76 18.007 181.716 17.9498C179.686 17.9498 178.429 16.6712 178.429 14.0408V14.0253ZM187.304 14.0253V8.27382H185.854V5.98326H187.304V2.07425L190.012 1.78455V5.98326H193.465V8.27382H190.012V13.7742C190.012 14.9833 190.371 15.4159 191.145 15.4159C191.756 15.383 192.352 15.2099 192.885 14.9099L193.585 17.2506C192.675 17.7644 191.636 18.007 190.592 17.9498C188.561 17.9498 187.304 16.6712 187.304 14.0408V14.0253ZM195.144 0H197.851V17.7682H195.144V0ZM210.927 12.7468H202.329C202.666 14.4579 203.946 15.4738 205.783 15.4738C206.351 15.4883 206.914 15.3718 207.429 15.1333C207.944 14.8948 208.398 14.5407 208.753 14.0987L210.637 15.7133C209.647 16.9918 208.173 17.9343 205.636 17.9343C202.063 17.9343 199.526 15.5433 199.526 11.8545C199.526 8.23519 201.989 5.79785 205.447 5.79785C208.753 5.79785 211 8.28155 211 11.7077C210.997 12.0552 210.972 12.4022 210.927 12.7468V12.7468ZM202.376 10.6223H208.27C207.933 9.20086 206.967 8.23519 205.42 8.23519C204.709 8.20796 204.012 8.43501 203.454 8.87546C202.896 9.31592 202.514 9.94086 202.376 10.6378V10.6223ZM16.0888 16.6094C16.5185 16.1906 16.8599 15.6902 17.093 15.1376C17.3261 14.585 17.4462 13.9915 17.4462 13.3918C17.4462 12.7922 17.3261 12.1987 17.093 11.6461C16.8599 11.0935 16.5185 10.5931 16.0888 10.1742L7.93625 2.20172C7.05336 1.35201 5.87502 0.877264 4.64893 0.877264C3.42284 0.877264 2.2445 1.35201 1.3616 2.20172V2.20172C0.931842 2.62087 0.59034 3.12162 0.35718 3.67452C0.124019 4.22742 0.00390625 4.82131 0.00390625 5.42124C0.00390625 6.02118 0.124019 6.61507 0.35718 7.16797C0.59034 7.72086 0.931842 8.22162 1.3616 8.64077L9.5103 16.6094C10.3934 17.4603 11.5725 17.9358 12.7996 17.9358C14.0266 17.9358 15.2057 17.4603 16.0888 16.6094V16.6094ZM40.6355 2.20558C39.7526 1.35588 38.5743 0.881127 37.3482 0.881127C36.1221 0.881127 34.9437 1.35588 34.0608 2.20558L29.095 7.05708L24.1331 2.20558C23.2502 1.35588 22.0719 0.881127 20.8458 0.881127C19.6197 0.881127 18.4414 1.35588 17.5585 2.20558V2.20558C17.1298 2.62494 16.7892 3.12555 16.5567 3.67805C16.3242 4.23056 16.2044 4.82385 16.2044 5.42318C16.2044 6.0225 16.3242 6.6158 16.5567 7.1683C16.7892 7.72081 17.1298 8.22141 17.5585 8.64077L25.711 16.6094C26.6322 17.463 27.8423 17.9373 29.0989 17.9373C30.3555 17.9373 31.5656 17.463 32.4868 16.6094L40.6432 8.63305C41.0702 8.2133 41.4092 7.71277 41.6404 7.1607C41.8715 6.60863 41.9902 6.01609 41.9895 5.41769C41.9887 4.8193 41.8686 4.22704 41.6362 3.67553C41.4037 3.12402 41.0635 2.6243 40.6355 2.20558V2.20558Z" fill="white"/>
</svg>
